assets/notion-icon.svg

<svg width="17" height="17" viewBox="0 0 17 17" fill="none" xmlns="http://www.w3.org/2000/svg">
<path d="M11.4183 6.86394V12.5337L10.7525 12.6042L7.53667 7.03318L6.94167 7.08957V14.875L14.1667 14.3673V4.29648L10.8658 2.125L2.125 2.90195V12.1388L4.47667 14.875V5.03359L11.4183 4.47548" stroke="white" stroke-linecap="round" stroke-linejoin="round"/>
</svg>

<svg xmlns="http://www.w3.org/2000/svg" width="17" height="17" fill="none" xmlns:v="https://vecta.io/nano"><path d="M11.418 6.864v5.67l-.666.071-3.216-5.571-.595.056v7.785l7.225-.508V4.296l-3.301-2.171-8.741.777v9.237l2.352 2.736V5.034l6.942-.558" stroke="#fff" stroke-linecap="round" stroke-linejoin="round"/></svg>
